X:1
T:Title
%%score { ( 1 3 ) | 2 }
L:1/8
M:4/4
K:Ab
V:1 treble nm="Grand Piano"
V:3 treble 
V:2 bass 
V:1
 z4 z2[Q:1/4=100] [CA][DB] | [Ec]2 [Ec]2 [Ec]2 [DB]2 | [CA]2 [DA]2 [CA]2 [CE][CE] | %3
 [Ed]2 [Fd]2 [Gd]2 c2 |[M:3/4] B6 |[M:1/4] [EA]B |[M:4/4] c2 c2 c2 [_Ge]2 | [Fe]2 [Fd]2 F2 GF | %8
 E2 [Fd]2 [Ec]2 [DB]2 |[M:3/4] [CA]6 |[M:1/4] [CE]>[CE] | %11
[M:4/4] [CA]>[CA] [DA]>[DA] [CA]2 [CE]>[CF] | G6 z2 | d>[Fd] [Gd]>[Fd] d2 B>_c | %14
 c2- [Ec-]>[Ec-] [Ec]2 c2 |[M:7/8] e>ee>c[GB] [FA]2 |[M:1/8] [_GA] | %17
[M:4/4] [Fd]>[Fd] [FA]>[FB] [=Ec] [Fc]3 | [Fd]>[Fc] [FB]>[FB] [Af]>[Af] [Ae]2 | %19
[M:9/8] [=DFA]3 [_DEB]3 [CEA]3 |] %20
V:2
 z4 z2 [A,,A,][A,,A,] | [A,,A,]2 [A,,A,]2 [A,,A,]2 [E,G,]2 | %2
 [A,,A,]2 [A,,F,]2 [A,,E,]2 [A,,A,][A,,A,] | [E,G,]2 [E,A,]2 [E,B,]2 [A,E]2 |[M:3/4] [E,G,E]6 | %5
[M:1/4] [C,A,][E,G,E] |[M:4/4] [A,E]2 [G,B,=E]2 [F,A,F]2 [C,A,]2 | %7
 [D,A,]2 [D,A,]2 [D,A,D]2 [=D,A,_C][D,A,C] | [E,A,C]2 [B,,B,]2 [E,A,]2 [E,G,]2 |[M:3/4] [A,,A,]6 | %10
[M:1/4] [A,,A,]>[A,,A,] |[M:4/4] [A,,E,]>[A,,E,] [A,,F,]>[A,,F,] [A,,E,]2 [A,,A,]>[A,,A,] | %12
 [E,B,D]2 [E,B,]>[E,B,] [E,B,]2 [E,G,D]>[E,G,D] | %13
 [E,G,E]>[E,A,] [E,B,]>[E,A,] [E,G,E]2 [E,G,E]>[E,G,E] | %14
 [A,,A,]2 [C,A,]>[E,A,] A,2[K:treble] [A,E]2 | %15
[M:7/8] [A,CA]>[A,CA][A,CA]>[A,EA][K:bass][E,D] [F,C]2 |[M:1/8] [E,C] | %17
[M:4/4] [D,D]>[D,A,] [D,A,]>[D,F,] [C,G,] [C,G,]3 | %18
 [B,,B,]>[C,=A,] [D,B,]>[D,B,] [=D,B,]>[D,B,] [E,C]2 |[M:9/8] B,,3 E,3 A,,3 |] %20
V:3
 x8 | x8 | x8 | x8 |[M:3/4] x6 |[M:1/4] x2 |[M:4/4] x8 | x8 | x8 |[M:3/4] x6 |[M:1/4] x2 | %11
[M:4/4] x8 | z2 D>D D2 E>E | x8 | E2 z2 z4 |[M:7/8] x7 |[M:1/8] x |[M:4/4] x8 | x8 |[M:9/8] x9 |] %20

